icons/arrow-down-circle-line.svg

<svg xmlns="http://www.w3.org/2000/svg" viewBox="0 0 24 24">
    <g>
        <path fill="none" d="M0 0h24v24H0z"/>
        <path d="M12 2c5.52 0 10 4.48 10 10s-4.48 10-10 10S2 17.52 2 12 6.48 2 12 2zm0 18c4.42 0 8-3.58 8-8s-3.58-8-8-8-8 3.58-8 8 3.58 8 8 8zm1-8h3l-4 4-4-4h3V8h2v4z"/>
    </g>
</svg>

<svg viewBox="0 0 24 24" xmlns="http://www.w3.org/2000/svg"><path d="M12 2C17.52 2 22 6.48 22 12C22 17.52 17.52 22 12 22C6.48 22 2 17.52 2 12C2 6.48 6.48 2 12 2ZM12 20C16.42 20 20 16.42 20 12C20 7.58 16.42 4 12 4C7.58 4 4 7.58 4 12C4 16.42 7.58 20 12 20ZM13 12H16L12 16L8 12H11V8H13V12Z"/></svg>
